X:8
T:The Tinker's Daughter
R:reel
C:Vincent Broderick
O:contempoary Irieland
D:Lisa MacArthur
Z:Paul Stewart Cranford (P.S.C.), <http://www.cranfordpub.com>
L:1/8
M:C|
Q:333
K:D
B|A2 FA DAFA|f2 df efdB|A2 FA DAFA|B2 dA BAFB|
A2 FA DAFA|f2 df efde|fa a/a/a b2 af|e2 de fdd:|
|:e|fa a/a/a bfaf|defd e2 de|f2 df efdB|Adfd edBd|
[1fa a/a/a bfaf|defd e2 de|f2 df efdB|AFEF D3:|
[2A2 FA DAFA|f2 df efde|fa a/a/a b2 af|e2 de fdd|]
